X:1
T:Title
%%score { ( 1 4 ) | ( 2 3 ) }
L:1/8
M:4/4
K:A
V:1 treble nm="Grand Piano"
V:4 treble 
V:2 treble 
V:3 treble 
V:1
 z4 z2[Q:1/4=104] cd | e3 e dc[DB]A | B2 F4 [FB]2 | [EA]2 [EA]2 B2 B2 | %4
[M:9/8] c2 e- e [Ge]2- [Ge]cd |[M:4/4] e3 e dc[DB]A | B2 F4 [FB]2 | A2 A2 cBAG | [CEA]6 GA | %9
 B2 B2 cBAB | c2 e4 GA | B2 B2 cB[EA][Ec] | B6 cd | e3 e dc[DB]A | z4 z2 B2 | [EA]2 [CA]2 cB[EA]B | %16
 c6 cd | e3 e dc[DB]A | B2 F4 [FB]2 | A3 E cBAG |[M:3/4] [CA]6 |] %21
V:2
 z4 z2 [A,E]2 | [A,CE]3 [A,CE] FE[K:bass] z C | [D,F,D]2 [D,A,D]4 [D,F,]2 | %3
 [C,A,]2 [C,A,]2 [E,G,E]2 [E,G,E]2 |[M:9/8][K:treble] z3 z3[K:bass] z[K:treble] [A,A]2 | %5
[M:4/4] [A,CA]3 [A,CA] A,-[A,E][K:bass] z C | [D,F,D]2 [D,A,D]4 [D,D]2 | %7
 [E,CE]2 [E,CE]2 [E,E][E,DE][E,CE][E,B,E] | z4 z2 [E,E]2 | z4 [E,E]2 [E,E]2 | [A,E]2 [A,CE]4 z F, | %11
 [E,G,E]2 [E,G,E]2 [A,E][E,G,E][C,A,][A,,A,] | z4 z2[K:treble] [A,E]2 | %13
 [A,CA]3 [A,CA] FE[K:bass] z C | [D,F,D]2 [D,A,D]4 .[D,F,]2 | %15
 [C,A,]2 [A,,A,]2 [A,E][E,G,E][C,A,][E,G,E] | z4 z2[K:treble] [A,E]2 | %17
 [A,CA]3 [A,CA] FE[K:bass] z C | [D,F,D]2 [D,A,D]4 [D,D]2 | %19
 [E,CE]3 [E,A,C] [E,A,E][E,B,D][E,C][E,B,D] |[M:3/4] [A,,A,]6 |] %21
V:3
 z4 z2 z B, | z4 A,2[K:bass] A,2 | x8 | x8 | %4
[M:9/8][K:treble] [A,E]2 [A,CA]- [A,CA][K:bass] [E,E]2- [E,E][K:treble] z B, | %5
[M:4/4] z4 .F2[K:bass] A,2 | x8 | x8 | A,,6 z F, | [E,G,E]2 [E,G,E]2 A,G,F,G, | z4 z2 [E,E]2 | x8 | %12
 [E,G,E]6[K:treble] z B, | z4 A,2[K:bass] A,2 | x8 | x8 | [A,E]6[K:treble] z B, | %17
 z4 A,2[K:bass] A,2 | x8 | x8 |[M:3/4] x6 |] %21
V:4
 x8 | x8 | x8 | x8 |[M:9/8] x9 |[M:4/4] x8 | x8 | x8 | x8 | x8 | x8 | x8 | x8 | x8 | B2 F4 F[G,E] | %15
 x8 | x8 | x8 | x8 | x8 |[M:3/4] x6 |] %21

